X:1
T:The Brave Volunteer
M:3/4
L:1/4
K:D
 A| A F F| F E D| D C B,| C2 B| B C C| C/2 A/2- A A| A/2 D/2- D C|\
 D3| A F- F/2F/2| F/2 E/2- E D| D/2 C/2- C B,| C2 B| B/2 C/2- C E|\
 A C E| E D/2 C/2- C| D3-| D2||
